packages/web/app/assets/images/beaker.svg

<svg fill="none" height="16" viewBox="0 0 16 16" width="16" xmlns="http://www.w3.org/2000/svg"><path d="m15.7999 14.4-5.79997-7.73v-4.17l1.34997-1.69c.26-.33.03-.81-.39-.81h-5.91997c-.42 0-.65.48-.39.81l1.35 1.69v4.17l-5.799999 7.73c-.49.66-.02 1.6.8 1.6h13.999969c.82 0 1.29-.94.8-1.6z" fill="#326699"/></svg>

<svg width="16" height="16" viewBox="0 0 16 16" fill="none" xmlns="http://www.w3.org/2000/svg">
<path d="M15.7999 14.4L9.99993 6.67V2.5L11.3499 0.81C11.6099 0.48 11.3799 0 10.9599 0H5.03993C4.61993 0 4.38993 0.48 4.64993 0.81L5.99993 2.5V6.67L0.199931 14.4C-0.290069 15.06 0.179931 16 0.999931 16H14.9999C15.8199 16 16.2899 15.06 15.7999 14.4Z" fill="#326699"/>
</svg>
